X:1
T:Breaking Morn, 98.98 D
T:Breaking Morn, 98.98 D
T:Sylvester Main, 1865
T:Public Domain Courtesy of the Cyber Hymnal™
C:Sylvester Main, 1865
Z:Public Domain
Z:Courtesy of the Cyber Hymnal™
%%score ( 1 2 ) ( 3 4 )
L:1/8
Q:1/4=96
M:2/4
K:Bb
V:1 treble 
V:2 treble 
V:3 bass 
V:4 bass 
V:1
 [DF]2 [DB]>[FA] | [EG]3 [GB] | (AB) (cA) | [FB]2 [DF]2 | [Fd]2 [Ec]>[Fd] | [DB]2 [EG]2 | %6
 ([DF][FB]) (Ac) |1 [FB]4 :|2 [FB]3 [Fd] || [Fc]2 [B=e]2 | f3 [Fd] | (cd) (ed) | [Fd]2 [Fc][Fc] | %13
 [Fd]2 [Fe]2 | [Ff]2 [Fd]2 | (cB) (cd) | [Fc]3 [DF] | [DF]2 ([DB]>[FA]) | [EG]3 [GB] | (AB) (cA) | %20
 [FB]2 [DF]2 | [Fd]2 [Ec]>[Fd] | [DB]2 [EG]2 | (FB) ([Fd][Ec]) | [DB]3 |] %25
V:2
 x4 | x4 | F2 F2 | x4 | x4 | x4 | x2 F2 |1 x4 :|2 x4 || x4 | (A>G F) x | F2 F2 | x4 | x4 | x4 | %15
 F2 F2 | x4 | x4 | x4 | F2 F2 | x4 | x4 | x4 | D2 x2 | x3 |] %25
V:3
 [B,,B,]2 [B,,B,]>[B,,B,] | [E,B,]3 [E,E] | (CD) (EC) | [B,,D]2 [B,,B,]2 | B,2 B,>B, | %5
 B,2 [E,B,]2 | (B,D) (CE) |1 [B,,D]4 :|2 [B,,D]3 B, || [A,C]2 [G,C]2 | C3 B, | (A,B,) (CB,) | %12
 [F,B,]2 [F,A,][F,A,] | B,2 [B,C]2 | [B,D]2 B,2 | (A,G,) (A,B,) | [F,A,]3 [B,,B,] | %17
 [B,,B,]2 [B,,B,]2 | [E,B,]3 [E,E] | (CD) (EC) | [B,,D]2 [B,,B,]2 | B,2 B,>B, | B,2 [E,B,]2 | %23
 [F,B,]2 (B,A,) | [B,,B,]3 |] %25
V:4
 x4 | x4 | F,2 F,2 | x4 | B,2 B,>B, | B,2 x2 | F,2 F,2 |1 x4 :|2 x3 B, || x4 | (F,>G, B,)B, | %11
 F,2 F,2 | x4 | B,2 x2 | x2 B,2 | F,2 F,2 | x4 | x4 | x4 | F,2 F,2 | x4 | B,2 B,>B, | B,2 x2 | %23
 x2 F,2 | x3 |] %25

